src/icons/support-verification.svg

<svg enable-background="new 0 0 60 60" viewBox="0 0 60 60" xmlns="http://www.w3.org/2000/svg"><circle cx="30" cy="30" fill="#d4ecfc" r="30"/><path d="m22.7 19.6-3.9-3.9c1-1.6 1.6-3.5 1.6-5.5 0-5.6-4.6-10.2-10.2-10.2s-10.2 4.6-10.2 10.2 4.6 10.2 10.2 10.2c2 0 3.9-.6 5.5-1.6l3.9 3.9c.4.4.9.6 1.5.6 1.2 0 2.2-1 2.2-2.2 0-.6-.2-1.1-.6-1.5zm-12.5-2.1c-4 0-7.3-3.3-7.3-7.3s3.3-7.3 7.3-7.3 7.3 3.3 7.3 7.3-3.3 7.3-7.3 7.3zm3.6-8.8h-7.2c-.4 0-.7.3-.7.7s.3.7.7.7h7.3c.4 0 .7-.3.7-.7s-.3-.7-.8-.7zm0-2.9h-7.2c-.4 0-.7.3-.7.7s.3.7.7.7h7.3c.4 0 .7-.3.7-.7s-.3-.7-.8-.7zm0 5.9h-7.2c-.4 0-.7.3-.7.7s.3.7.7.7h7.3c.4 0 .7-.3.7-.7s-.3-.7-.8-.7z" fill="#25a6f7" transform="translate(18 18)"/></svg>

<?xml version="1.0" encoding="utf-8"?>
<!-- Generator: Adobe Illustrator 20.1.0, SVG Export Plug-In . SVG Version: 6.00 Build 0)  -->
<svg version="1.1" id="Layer_1" xmlns="http://www.w3.org/2000/svg" xmlns:xlink="http://www.w3.org/1999/xlink" x="0px" y="0px"
	 viewBox="0 0 60 60" style="enable-background:new 0 0 60 60;" xml:space="preserve">
<style type="text/css">
	.st0{fill:#D4ECFC;}
	.st1{fill:#25A6F7;}
</style>
<title>HDL/Icon/Standard/Support/verification</title>
<desc>Created with Sketch.</desc>
<g id="Colors">
	<g id="Support-Icons" transform="translate(-100.000000, -860.000000)">
		<g id="HDL_x2F_Icon_x2F_Standard_x2F_Support_x2F_verification" transform="translate(100.000000, 860.000000)">
			<g id="ICON">
				<circle id="Oval" class="st0" cx="30" cy="30" r="30"/>
				<g id="HDL_x2F_Icon_x2F_Special_x2F_Command_x2F_resource-constraint" transform="translate(18.000000, 18.000000)">
					<path id="Shape" class="st1" d="M22.7,19.6l-3.9-3.9c1-1.6,1.6-3.5,1.6-5.5C20.4,4.6,15.8,0,10.2,0S0,4.6,0,10.2
						s4.6,10.2,10.2,10.2c2,0,3.9-0.6,5.5-1.6l3.9,3.9c0.4,0.4,0.9,0.6,1.5,0.6c1.2,0,2.2-1,2.2-2.2C23.3,20.5,23.1,20,22.7,19.6z
						 M10.2,17.5c-4,0-7.3-3.3-7.3-7.3s3.3-7.3,7.3-7.3s7.3,3.3,7.3,7.3S14.2,17.5,10.2,17.5z M13.8,8.7H6.6c-0.4,0-0.7,0.3-0.7,0.7
						s0.3,0.7,0.7,0.7h7.3c0.4,0,0.7-0.3,0.7-0.7S14.3,8.7,13.8,8.7z M13.8,5.8H6.6c-0.4,0-0.7,0.3-0.7,0.7c0,0.4,0.3,0.7,0.7,0.7
						h7.3c0.4,0,0.7-0.3,0.7-0.7C14.6,6.1,14.3,5.8,13.8,5.8z M13.8,11.7H6.6c-0.4,0-0.7,0.3-0.7,0.7c0,0.4,0.3,0.7,0.7,0.7h7.3
						c0.4,0,0.7-0.3,0.7-0.7C14.6,12,14.3,11.7,13.8,11.7z"/>
				</g>
			</g>
		</g>
	</g>
</g>
</svg>
